X:618
T:Reel 618
M:4/4
K:Amaj
L:1/8
CD|E>A, (3A,G,A, E>A, (3CB,A, |EAGA FEDC|D>B, (3B,B,B, F,B,DB,|DEFG AFED|E>A, (3A,A,A, EA,ED|C>A, (3A,A,A, E2DC|DEFG ABAF|EDB,G, A,2|CD|EAAG A2GA|EBBA GEE2|EDCE A,B,CD|B,CB,A, G,B,DB,|EAAG A2GA|EAGA FEDC|DEFG AFED|CA,B,G, A,2|
